X:12898
T:Pasudoble (MG 77)
R:Pasudoble
C:Versión del Gaiteru Dionisio de la Riela
S:Música Tradicional Asturiana, (C) Tello & Tito. Asturies, 2001.
S:http://pagina.de/MusTradAst <telloytito@asturies.org>
A:Asturies
Z:Métodu de Gaita 77
E:Comp.
M:2/4
L:1/8
Q:1/4=200
K:C
|: {A}G2 F2|E3 D|FEDC|.D2 ~D2|
|{B}A2 G2|F3 D|FEDC|G4|
|{A}G2 F2|E3 D|FGAB|c4|
|cc/c/ cc|B3 G|BAGF|E4 :|
|E4|EE/F/ GA|A4|G4|
|c2 B2|A2 G2|F4-|F4|
|D4|DD/E/ FG|G4|F4|
|B2 A2|G2 F2|E4-|E4|
|E4|EE/F/ GA|A4|G4|
|c2 B2|A2 G2|A4-|A4|
|A4|AcBA|G4-|GEFG|
|A2 G2|B2 {e}d2|c4|

